www/assets/icons/currency_franc.svg

<svg width="24" height="24" viewBox="0 0 24 24" xmlns="http://www.w3.org/2000/svg" fill='currentColor'><path d="M18.5 5V3H7.5V16H5.5V18H7.5V21H9.5V18H13.5V16H9.5V13H17.5V11H9.5V5H18.5Z"/></svg>

<svg xmlns="http://www.w3.org/2000/svg" width="24" height="24" viewBox="0 0 24 24" fill='currentColor'><path d="M18.5 5V3h-11v13h-2v2h2v3h2v-3h4v-2h-4v-3h8v-2h-8V5z"/></svg>
